64x64/apps/GitEye.svg

<svg height="64" width="64" xmlns="http://www.w3.org/2000/svg"><path d="m38.29 35.058-4.243 4.243 6.043 6.043a5.294 5.295 0 0 0 1.515 4.761l9.27 9.266a5.294 5.295 0 1 0 7.484-7.488l-9.261-9.266a5.294 5.295 0 0 0 -3.801-1.605 5.294 5.295 0 0 0 -.965.09z" opacity=".2"/><path d="m38.29 34.047-4.243 4.242 6.045 6.045a5.294 5.295 0 0 0 1.515 4.76l9.266 9.265a5.294 5.295 0 1 0 7.486-7.486l-9.263-9.27a5.294 5.295 0 0 0 -3.801-1.603 5.294 5.295 0 0 0 -.961.092l-6.045-6.045z" fill="#2b5fa9"/><path d="m38.29 34.047-4.243 4.242.5.5 3.742-3.742 6.043 6.043a5.294 5.295 0 0 1 .965-.09 5.294 5.295 0 0 1 3.8 1.605l9.262 9.266a5.294 5.295 0 0 1 1.602 3.33 5.294 5.295 0 0 0 -1.602-4.33l-9.261-9.266a5.294 5.295 0 0 0 -3.801-1.605 5.294 5.295 0 0 0 -.965.09l-6.043-6.043z" fill="#f4f4f7" opacity=".1"/><path d="m10.352 5c-3.455 0-6.352 2.849-6.352 6.315v4.685h6v3h-6v15.685c0 3.466 2.897 6.315 6.352 6.315h23.296c3.455 0 6.352-2.849 6.352-6.315v-23.37c0-3.466-2.897-6.315-6.352-6.315z" opacity=".2"/><path d="m10.352 4c-3.455 0-6.352 2.849-6.352 6.315v4.685h6v3h-6v15.685c0 3.466 2.897 6.315 6.352 6.315h23.296c3.455 0 6.352-2.849 6.352-6.315v-23.37c0-3.466-2.897-6.315-6.352-6.315z" fill="#4c8fe8"/><path d="m14.235 11c-2.304 0-4.235 1.899-4.235 4.21v15.58c0 2.311 1.931 4.21 4.235 4.21h15.53c2.304 0 4.235-1.899 4.235-4.21v-15.58c0-2.311-1.931-4.21-4.235-4.21z" opacity=".2"/><path d="m14.235 10c-2.304 0-4.235 1.899-4.235 4.21v15.58c0 2.311 1.931 4.21 4.235 4.21h15.53c2.304 0 4.235-1.899 4.235-4.21v-15.58c0-2.311-1.931-4.21-4.235-4.21z" fill="#f4f4f7"/><path d="m26.154 26.154-8.308-9.654m-7.846 0h16.154" fill="none" stroke="#feae12" stroke-width="3"/><g fill="#feae12"><circle cx="27.5" cy="16.5" r="3.5"/><circle cx="18.5" cy="16.5" r="3.5"/><circle cx="26.5" cy="26.5" r="3.5"/></g><path d="m10.352 4c-3.456 0-6.352 2.85-6.352 6.316v1c0-3.466 2.896-6.316 6.352-6.316h23.296c3.456 0 6.352 2.85 6.352 6.316v-1c0-3.466-2.896-6.316-6.352-6.316zm-6.352 14v1h6v-1z" fill="#f4f4f7" opacity=".2"/></svg>

<svg xmlns="http://www.w3.org/2000/svg" width="64" height="64"><path style="opacity:.2" d="m38.29 35.058-4.243 4.243 6.043 6.043a5.294 5.295 0 0 0 1.515 4.761l9.27 9.266a5.294 5.295 0 1 0 7.484-7.488l-9.261-9.266a5.294 5.295 0 0 0-3.801-1.605 5.294 5.295 0 0 0-.965.09z"/><path style="fill:#2b5fa9" d="m38.29 34.047-4.243 4.242 6.045 6.045a5.294 5.295 0 0 0 1.515 4.76l9.266 9.265a5.294 5.295 0 1 0 7.486-7.486l-9.263-9.27A5.294 5.295 0 0 0 45.295 40a5.294 5.295 0 0 0-.961.092l-6.045-6.045z"/><path style="opacity:.1;fill:#f4f4f7" d="m38.29 34.047-4.243 4.242.5.5 3.742-3.742 6.043 6.043a5.294 5.295 0 0 1 .965-.09 5.294 5.295 0 0 1 3.8 1.605l9.262 9.266a5.294 5.295 0 0 1 1.602 3.33 5.294 5.295 0 0 0-1.602-4.33l-9.261-9.266A5.294 5.295 0 0 0 45.297 40a5.294 5.295 0 0 0-.965.09l-6.043-6.043z"/><path style="opacity:.2" d="M10.352 5C6.897 5 4 7.849 4 11.315V16h6v3H4v15.685C4 38.151 6.897 41 10.352 41h23.296C37.103 41 40 38.151 40 34.685v-23.37C40 7.849 37.103 5 33.648 5z"/><path style="fill:#4c8fe8" d="M10.352 4C6.897 4 4 6.849 4 10.315V15h6v3H4v15.685C4 37.151 6.897 40 10.352 40h23.296C37.103 40 40 37.151 40 33.685v-23.37C40 6.849 37.103 4 33.648 4z"/><path style="opacity:.2" d="M14.235 11C11.931 11 10 12.899 10 15.21v15.58c0 2.311 1.931 4.21 4.235 4.21h15.53C32.069 35 34 33.101 34 30.79V15.21c0-2.311-1.931-4.21-4.235-4.21z"/><path style="fill:#f4f4f7" d="M14.235 10C11.931 10 10 11.899 10 14.21v15.58c0 2.311 1.931 4.21 4.235 4.21h15.53C32.069 34 34 32.101 34 29.79V14.21c0-2.311-1.931-4.21-4.235-4.21z"/><path style="fill:none;stroke:#feae12;stroke-width:3.00000024" d="M26.154 26.154 17.846 16.5M10 16.5h16.154"/><circle style="fill:#feae12" cx="27.5" cy="16.5" r="3.5"/><circle style="fill:#feae12" cx="18.5" cy="16.5" r="3.5"/><circle style="fill:#feae12" cx="26.5" cy="26.5" r="3.5"/><path style="opacity:.2;fill:#f4f4f7" d="M10.352 4C6.896 4 4 6.85 4 10.316v1C4 7.85 6.896 5 10.352 5h23.296C37.104 5 40 7.85 40 11.316v-1C40 6.85 37.104 4 33.648 4H10.352zM4 18v1h6v-1H4z"/></svg>
